tools/download-figma-icons/icons/outlined-large/reset.svg

<svg xmlns="http://www.w3.org/2000/svg" width="64" height="64" fill="none" viewBox="0 0 64 64"><path fill="currentColor" d="M32 0a31.93 31.93 0 0 0-20.87 7.75V1.5c0-.83-.67-1.5-1.5-1.5s-1.5.67-1.5 1.5v10.17c0 .83.67 1.5 1.5 1.5H19.8c.83 0 1.5-.67 1.5-1.5s-.67-1.5-1.5-1.5h-6.88A28.96 28.96 0 0 1 32 3c15.99 0 29 13.01 29 29S47.99 61 32 61 3 47.99 3 32c0-.83-.67-1.5-1.5-1.5S0 31.17 0 32c0 17.64 14.36 32 32 32s32-14.36 32-32S49.64 0 32 0"/><path fill="currentColor" d="M45.41 14.31c-.66-.5-1.6-.37-2.1.29l-9.02 11.86a6 6 0 0 0-2.28-.45c-2.79 0-5.13 1.92-5.8 4.5H15.5c-.83 0-1.5.67-1.5 1.5s.67 1.5 1.5 1.5h10.7c.67 2.58 3.01 4.5 5.8 4.5 3.31 0 6-2.69 6-6 0-1.42-.5-2.72-1.32-3.74l9.01-11.85c.5-.66.37-1.6-.29-2.1zM32 35c-1.65 0-3-1.35-3-3s1.35-3 3-3 3 1.35 3 3-1.35 3-3 3"/></svg>

<svg width="64" height="64" viewBox="0 0 64 64" fill="none" xmlns="http://www.w3.org/2000/svg">
<path d="M32 0C24.31 0 16.94 2.75 11.13 7.75V1.5C11.13 0.67 10.46 0 9.63 0C8.8 0 8.13 0.67 8.13 1.5V11.67C8.13 12.5 8.8 13.17 9.63 13.17H19.8C20.63 13.17 21.3 12.5 21.3 11.67C21.3 10.84 20.63 10.17 19.8 10.17H12.92C18.21 5.55 24.96 3 32 3C47.99 3 61 16.01 61 32C61 47.99 47.99 61 32 61C16.01 61 3 47.99 3 32C3 31.17 2.33 30.5 1.5 30.5C0.67 30.5 0 31.17 0 32C0 49.64 14.36 64 32 64C49.64 64 64 49.64 64 32C64 14.36 49.64 0 32 0Z" fill="black"/>
<path d="M45.41 14.31C44.75 13.81 43.81 13.94 43.31 14.6L34.29 26.46C33.59 26.17 32.81 26.01 32.01 26.01C29.22 26.01 26.88 27.93 26.21 30.51H15.5C14.67 30.51 14 31.18 14 32.01C14 32.84 14.67 33.51 15.5 33.51H26.2C26.87 36.09 29.21 38.01 32 38.01C35.31 38.01 38 35.32 38 32.01C38 30.59 37.5 29.29 36.68 28.27L45.69 16.42C46.19 15.76 46.06 14.82 45.4 14.32L45.41 14.31ZM32 35C30.35 35 29 33.65 29 32C29 30.35 30.35 29 32 29C33.65 29 35 30.35 35 32C35 33.65 33.65 35 32 35Z" fill="black"/>
</svg>
